;FLAVOR:UltiGCode
;TIME:3161
;MATERIAL:5840
;MATERIAL2:0
;NOZZLE_DIAMETER:0.6
;MINX:71.21
;MINY:59.809
;MINZ:0.4
;MAXX:148.767
;MAXY:135.256
;MAXZ:34.3
;Generated with Cura_SteamEngine 5.2.2
M82 ;absolute extrusion mode
G0 F3000 Y50 ;avoid prime blob
G92 E0
G92 E0
G10
;LAYER_COUNT:227
;LAYER:0
M107
G0 F7200 X93.639 Y61.153 Z0.4
;TYPE:SKIRT
G11
G1 F1800 X93.976 Y60.765 E0.12334
G1 X94.369 Y60.435 E0.2465
G1 X94.808 Y60.169 E0.36969
G1 X95.284 Y59.975 E0.49306
G1 X95.783 Y59.857 E0.61612
G1 X96.295 Y59.81 E0.73952
G1 X125.35 Y59.809 E7.71272
G1 X126.048 Y59.819 E7.88026
G1 X126.56 Y59.867 E8.00367
G1 X127.057 Y59.993 E8.12673
G1 X127.529 Y60.194 E8.24985
G1 X127.965 Y60.467 E8.37331
G1 X128.352 Y60.803 E8.49631
G1 X128.683 Y61.196 E8.61963
G1 X128.949 Y61.635 E8.74282
G1 X129.143 Y62.111 E8.86619
G1 X129.262 Y62.61 E8.9893
G1 X129.309 Y63.124 E9.11318
G1 X129.31 Y83.612 E14.0303
G1 X129.35 Y86.406 E14.70093
G1 X129.465 Y89.117 E15.35215
G1 X129.659 Y91.86 E16.01212
G1 X129.929 Y94.588 E16.67004
G1 X130.274 Y97.28 E17.3214
G1 X130.702 Y100.004 E17.98318
G1 X131.198 Y102.672 E18.63447
G1 X131.776 Y105.357 E19.29363
G1 X132.414 Y107.964 E19.93778
G1 X133.16 Y110.674 E20.61237
G1 X133.946 Y113.241 E21.25668
G1 X134.83 Y115.862 E21.92054
G1 X135.775 Y118.423 E22.57569
G1 X136.788 Y120.946 E23.22819
G1 X137.885 Y123.466 E23.88781
G1 X139.192 Y126.245 E24.62485
G1 X139.436 Y126.744 E24.75817
G1 X139.625 Y127.221 E24.8813
G1 X139.738 Y127.722 E25.00456
G1 X139.772 Y128.234 E25.12772
G1 X139.726 Y128.745 E25.25085
G1 X139.57 Y129.368 E25.40499
G1 X139.023 Y130.495 E25.70564
G1 X138.699 Y131.015 E25.85269
G1 X138.363 Y131.403 E25.97587
G1 X137.787 Y131.878 E26.15505
G1 X137.2 Y132.21 E26.3169
G1 X136.616 Y132.42 E26.46585
G1 X135.944 Y132.592 E26.63233
G1 X135.077 Y132.777 E26.84509
G1 X134.459 Y132.847 E26.99436
G1 X133.423 Y132.866 E27.24304
G1 X116.554 Y132.865 E31.2916
G1 X113.323 Y132.845 E32.06706
G1 X111.881 Y132.846 E32.41314
G1 X104.458 Y132.906 E34.19472
G1 X97.205 Y132.922 E35.93544
G1 X95.644 Y132.903 E36.31011
G1 X92.889 Y132.91 E36.97131
G1 X92.491 Y132.919 E37.06686
G1 X91.477 Y132.923 E37.31022
G1 X85.876 Y132.874 E38.65451
G1 X75.171 Y132.846 E41.22372
G1 X74.473 Y132.834 E41.39126
G1 X73.962 Y132.785 E41.51447
G1 X73.465 Y132.657 E41.63764
G1 X72.993 Y132.454 E41.76095
G1 X72.559 Y132.181 E41.884
G1 X72.172 Y131.843 E42.00732
G1 X71.843 Y131.449 E42.13051
G1 X71.578 Y131.009 E42.25379
G1 X71.385 Y130.533 E42.37706
G1 X71.237 Y129.902 E42.53261
G1 X71.21 Y128.536 E42.86051
G1 X71.21 Y127.517 E43.10507
G1 X71.22 Y126.814 E43.27381
G1 X71.268 Y126.303 E43.39699
G1 X71.393 Y125.805 E43.52022
G1 X71.595 Y125.333 E43.64344
G1 X71.921 Y124.827 E43.7879
G1 X72.403 Y124.211 E43.97562
G1 X74.05 Y122.047 E44.62829
G1 X75.652 Y119.812 E45.28825
G1 X77.18 Y117.55 E45.94339
G1 X78.659 Y115.219 E46.60593
G1 X80.046 Y112.892 E47.2561
G1 X81.394 Y110.475 E47.92029
G1 X82.636 Y108.091 E48.56544
G1 X83.846 Y105.602 E49.22965
G1 X84.971 Y103.109 E49.88607
G1 X86.021 Y100.596 E50.53972
G1 X87.01 Y98.028 E51.20017
G1 X87.911 Y95.473 E51.85038
G1 X88.754 Y92.851 E52.51138
G1 X89.515 Y90.231 E53.16617
G1 X90.205 Y87.577 E53.8243
G1 X90.817 Y84.912 E54.48055
G1 X91.352 Y82.242 E55.13409
G1 X91.817 Y79.523 E55.79612
G1 X92.198 Y76.843 E56.44579
G1 X92.509 Y74.109 E57.10618
G1 X92.738 Y71.409 E57.75651
G1 X92.894 Y68.656 E58.41829
G1 X92.98 Y64.578 E59.39723
G1 X92.98 Y63.733 E59.60003
G1 X92.99 Y63.068 E59.75964
G1 X93.038 Y62.557 E59.88282
G1 X93.164 Y62.06 E60.00588
G1 X93.366 Y61.588 E60.1291
G1 X93.639 Y61.153 E60.25235
G10
;MESH:Motorfeste small iterasjon 2.STL
G0 F7200 X95.459 Y63.723
G0 X96.581 Y63.41
;TYPE:WALL-OUTER
G11
G1 F1800 X96.581 Y92.538 E67.94214
G1 X125.71 Y92.539 E75.6322
G1 X125.71 Y64.636 E82.99859
G1 X125.71 Y63.409 E83.32252
G1 X96.581 Y63.41 E91.01258
G0 F7200 X96.581 Y63.71
G0 X97.55 Y64.211
G0 X97.471 Y65.728
G0 X97.926 Y67.701
G0 X99.247 Y69.524
G0 X99.459 Y68.763
G1 F1800 X98.615 Y68.243 E91.27429
G1 X98.213 Y67.523 E91.49199
G1 X98.101 Y66.873 E91.66612
G1 X98.212 Y66.226 E91.83942
G1 X98.533 Y65.652 E92.01304
G1 X98.99 Y65.252 E92.17338
G1 X99.076 Y65.199 E92.20005
G1 X99.795 Y64.911 E92.40452
G1 X100.779 Y65.038 E92.66645
G1 X101.583 Y65.634 E92.93067
G1 X101.992 Y66.534 E93.19165
G1 X101.921 Y67.363 E93.41131
G1 X101.659 Y67.937 E93.57789
G1 X101.197 Y68.436 E93.75742
G1 X100.464 Y68.806 E93.97418
G1 X99.459 Y68.763 E94.23975
G0 F7200 X99.204 Y68.606
G10
G0 X98.785 Y69.288
G0 X100.846 Y69.617
G0 X103.227 Y74.037
G0 X104.684 Y79.217
G11
G1 F1800 X103.888 Y79.804 E94.50085
G1 X102.902 Y79.935 E94.76344
G1 X102.131 Y79.629 E94.98243
G1 X101.635 Y79.195 E95.15643
G1 X101.315 Y78.624 E95.32923
G1 X101.203 Y77.974 E95.50336
G1 X101.315 Y77.326 E95.67696
G1 X101.718 Y76.603 E95.89549
G1 X102.564 Y76.084 E96.15751
G1 X103.565 Y76.04 E96.42203
G1 X104.331 Y76.428 E96.64871
G1 X104.462 Y76.307 E96.69579
G1 X104.065 Y75.591 E96.91193
G1 X103.953 Y74.943 E97.08554
G1 X104.064 Y74.297 E97.25858
G1 X104.471 Y73.574 E97.47762
G1 X105.314 Y73.054 E97.7391
G1 X106.313 Y73.01 E98.0031
G1 X107.031 Y73.37 E98.21514
G1 X107.504 Y73.863 E98.39551
G1 X107.844 Y74.612 E98.61266
G1 X107.772 Y75.423 E98.82761
G1 X107.697 Y75.604 E98.87933
G1 X107.435 Y76.184 E99.04735
G1 X106.766 Y76.68 E99.26721
G1 X106.136 Y76.869 E99.44086
G1 F1636.5 X105.45 Y76.841 E99.63842
G1 F1377 X104.476 Y76.446 E99.99128
G1 F1447.4 X104.741 Y76.851 E100.14674
G1 F1699.7 X105.026 Y77.491 E100.34156
G1 F1767.5 X105.09 Y78.313 E100.56285
G1 F1800 X104.684 Y79.217 E100.82447
G0 F7200 X104.443 Y79.395
G0 X104.74 Y80.171
G0 X105.922 Y77.736
G0 X109.486 Y75.152
G0 X110.297 Y74.234
G0 X112.804 Y74.626
G0 X112.454 Y75.34
G1 F1800 X113.269 Y75.938 E101.09134
G1 X113.796 Y76.719 E101.34007
G1 X113.994 Y77.259 E101.49191
G1 X114.076 Y78.21 E101.74391
G1 X113.831 Y79.17 E102.00547
G1 X113.276 Y80.002 E102.26951
G1 X112.498 Y80.576 E102.52475
G1 X111.979 Y80.787 E102.67266
G1 X111.018 Y80.912 E102.9285
G1 X110.052 Y80.705 E103.18931
G1 X109.2 Y80.181 E103.45337
G1 X108.583 Y79.412 E103.71366
G1 X108.269 Y78.541 E103.95809
G1 X108.213 Y77.976 E104.10798
G1 X108.213 Y77.92 E104.12276
G1 F1803.3 X108.378 Y76.989 E104.37196
G1 X108.854 Y76.137 E104.62918
G1 F1800 X109.588 Y75.481 E104.88907
G1 X110.516 Y75.101 E105.15381
G1 X111.516 Y75.057 E105.41806
G1 X112.454 Y75.34 E105.67672
G0 F7200 X112.696 Y75.517
G0 X113.172 Y74.871
G0 X114.815 Y76.617
G0 X115.835 Y77.175
G0 X117.059 Y77.093
G0 X117.645 Y76.535
G1 F1254.8 X117.942 Y76.327 E105.80882
G0 F7200 X118.496 Y75.768
G0 X119.721 Y75.275
G0 X119.563 Y76.041
G1 F1708.7 X120.278 Y76.404 E106.03074
G1 F1800 X120.761 Y76.902 E106.21389
G1 X121.025 Y77.487 E106.38333
G1 X121.088 Y78.257 E106.58729
G1 X121.084 Y78.309 E106.60106
G1 X121.062 Y78.381 E106.62094
G1 X120.684 Y79.215 E106.86267
G1 X119.889 Y79.806 E107.12419
G1 X118.891 Y79.931 E107.38972
G1 X118.143 Y79.632 E107.60239
G1 X117.639 Y79.199 E107.7778
G1 X117.315 Y78.624 E107.95204
G1 X117.203 Y77.974 E108.12617
G1 X117.306 Y77.376 E108.28637
G1 F1754.9 X117.469 Y77.018 E108.39264
G1 F1567.1 X117.617 Y76.612 E108.52193
G1 F1544.2 X116.633 Y76.87 E108.83033
G1 F1726.9 X115.811 Y76.835 E109.05586
G1 F1800 X114.965 Y76.312 E109.31843
G1 X114.567 Y75.597 E109.53447
G1 X114.453 Y74.942 E109.70999
G1 X114.572 Y74.285 E109.88626
G1 X114.967 Y73.573 E110.10121
G1 X115.804 Y73.058 E110.36066
G1 X116.814 Y73.009 E110.62761
G1 X117.533 Y73.372 E110.84025
G1 X118.009 Y73.876 E111.02327
G1 X118.344 Y74.61 E111.23627
G1 X118.28 Y75.377 E111.43946
G1 X118.114 Y75.789 E111.55673
G1 F1474.6 X117.942 Y76.327 E111.73517
G1 F1349 X118.612 Y76.082 E111.97906
G1 F1546.7 X119.563 Y76.041 E112.26721
G0 F7200 X119.83 Y76.176
G10
G0 X120.19 Y75.458
G0 X121.45 Y69.628
G0 X122.666 Y68.807
G11
G1 F1800 X121.666 Y68.762 E112.53148
G1 X120.959 Y68.326 E112.75077
G1 X120.554 Y67.816 E112.9227
G1 X120.333 Y67.198 E113.09597
G1 X120.333 Y66.546 E113.2681
G1 X120.609 Y65.767 E113.48628
G1 X121.229 Y65.219 E113.70473
G1 X121.996 Y64.912 E113.92284
G1 X122.988 Y65.039 E114.18686
G1 X123.657 Y65.539 E114.40735
G1 X124.022 Y66.1 E114.58405
G1 X124.169 Y66.656 E114.73587
G1 X124.178 Y66.733 E114.75634
G1 X124.11 Y67.532 E114.96804
G1 X123.553 Y68.359 E115.23127
G1 X122.666 Y68.807 E115.49361
G0 F7200 X122.367 Y68.794
G10
G0 X122.333 Y69.594
G0 X120.826 Y68.598
G0 X113.519 Y69.509
G0 X112.676 Y69.223
G11
G1 F1800 X111.876 Y69.809 E115.75541
G1 X110.896 Y69.934 E116.01623
G1 X110.133 Y69.63 E116.23306
G1 X109.674 Y69.229 E116.39396
G1 X109.631 Y69.183 E116.41059
G1 X109.314 Y68.62 E116.58116
G1 X109.205 Y67.969 E116.75542
G1 X109.315 Y67.326 E116.92763
G1 X109.718 Y66.603 E117.14615
G1 X110.557 Y66.087 E117.40619
G1 X111.565 Y66.04 E117.67259
G1 X112.283 Y66.402 E117.88487
G1 X112.761 Y66.903 E118.06768
G1 X113.026 Y67.49 E118.2377
G1 X113.094 Y68.311 E118.45519
G1 X112.676 Y69.223 E118.72004
G0 F7200 X112.434 Y69.4
G10
G0 X113.278 Y69.729
G0 X111.907 Y74.254
G0 X111.483 Y85.982
G11
G1 F1514.7 X110.95 Y86.029 E118.88508
G0 F7200 X110.017 Y86.017
G0 X108.977 Y87.291
G0 X109.028 Y88.803
G0 X110.02 Y89.95
G0 X112.025 Y90.163
G0 X111.884 Y89.808
G1 F1800 X110.889 Y89.933 E119.14982
G1 X110.131 Y89.629 E119.36543
G1 X109.635 Y89.195 E119.53942
G1 X109.315 Y88.624 E119.71223
G1 X109.203 Y87.973 E119.88662
G1 X109.32 Y87.315 E120.06305
G1 F1796.7 X109.72 Y86.603 E120.27901
G1 F1764.4 X110.577 Y86.07 E120.55033
G1 F1685 X110.899 Y86.035 E120.64111
G1 F1673.4 X110.122 Y85.685 E120.88147
G1 F1754.9 X109.642 Y85.259 E121.05485
G1 F1800 X109.315 Y84.688 E121.22856
G1 X109.204 Y84.032 E121.40421
G1 X109.317 Y83.382 E121.57838
G1 X109.637 Y82.814 E121.75049
G1 X110.136 Y82.383 E121.92456
G1 X110.897 Y82.075 E122.1413
G1 X111.72 Y82.183 E122.36043
G1 X112.284 Y82.467 E122.52714
G1 X112.75 Y82.943 E122.703
G1 X113.093 Y83.706 E122.92385
G1 X113.022 Y84.527 E123.1414
G1 F1780.4 X112.682 Y85.281 E123.36195
G1 F1739.2 X111.849 Y85.897 E123.64412
G1 F1667.6 X111.54 Y85.969 E123.73388
G1 F1705.7 X112.318 Y86.439 E123.98584
G1 F1800 X112.761 Y86.902 E124.15501
G1 X113.004 Y87.441 E124.3111
G1 X113.027 Y87.516 E124.33181
G1 X113.093 Y88.313 E124.54294
G1 X112.683 Y89.217 E124.80499
G1 X111.884 Y89.808 E125.06736
G0 F7200 X111.587 Y89.845
G10
G0 X111.637 Y90.244
G0 X113.864 Y88.746
G0 X119.433 Y88.802
G0 X120.334 Y88.744
G11
G1 F1800 X120.553 Y88.128 E125.23996
G1 X120.967 Y87.617 E125.41358
G1 X121.521 Y87.276 E125.58532
G1 X122.334 Y87.099 E125.80498
G1 X123.121 Y87.341 E126.02235
G1 X123.652 Y87.734 E126.19675
G1 X124.026 Y88.303 E126.37651
G1 X124.169 Y88.861 E126.52858
G1 X124.178 Y88.936 E126.54853
G1 X124.111 Y89.732 E126.75941
G1 X123.552 Y90.563 E127.02381
G1 X122.818 Y90.93 E127.24046
G1 X122.155 Y91.015 E127.41693
G1 X121.522 Y90.879 E127.58785
G1 X120.961 Y90.531 E127.76214
G1 X120.55 Y90.021 E127.93506
G1 X120.333 Y89.403 E128.10797
G1 X120.334 Y88.744 E128.28195
G0 F7200 X120.434 Y88.461
G10
G0 X119.679 Y88.193
G0 X120.554 Y91.291
G0 X101.172 Y91.648
G0 X102.847 Y88.748
G0 X101.702 Y87.406
G0 X100.182 Y86.318
G11
G0 X100.128 Y87.1
G1 F1800 X100.915 Y87.339 E128.49909
G1 X101.542 Y87.807 E128.70564
G1 X101.61 Y87.896 E128.73521
G1 X101.991 Y88.74 E128.97968
G1 X101.924 Y89.56 E129.19688
G1 X101.661 Y90.145 E129.36621
G1 X101.195 Y90.641 E129.54588
G1 X100.615 Y90.93 E129.71695
G1 X99.951 Y91.015 E129.89368
G1 X99.317 Y90.878 E130.06492
G1 X98.614 Y90.445 E130.28289
G1 X98.213 Y89.727 E130.5
G1 X98.101 Y89.076 E130.67439
G1 X98.241 Y88.26 E130.89296
G1 X98.743 Y87.639 E131.10377
G1 X99.313 Y87.275 E131.28232
G1 X100.128 Y87.1 E131.50238
G0 F7200 X100.415 Y87.187
G0 X100.648 Y86.421
G0 X99.301 Y86.357
G0 X97.643 Y87.757
G0 X97.41 Y88.198
;TYPE:WALL-INNER
G1 F962.3 X97.336 Y89.072 E131.84902
G1 F975.6 X97.398 Y89.816 E132.14067
G0 F7200 X97.38 Y90.365
G0 X98.222 Y90.908
G1 F1529.4 X97.647 Y90.1 E132.40258
G1 F1148.9 X97.398 Y89.816 E132.53089
G1 X97.256 Y90.201 E132.6703
G1 F1577.4 X97.18 Y90.896 E132.84989
G1 F1800 X97.181 Y91.938 E133.08747
G1 F1780.4 X99.147 Y91.939 E133.5402
G1 F1341.1 X99.747 Y91.763 E133.72577
G1 F1329.5 X99.238 Y91.487 E133.89893
G1 F1761.2 X98.958 Y91.362 E133.97024
G1 F1739.2 X98.222 Y90.908 E134.17365
G0 F7200 X98.086 Y91.034
G0 X99.747 Y91.763
G1 F1085.2 X99.974 Y91.776 E134.25478
G1 F1046 X100.674 Y91.734 E134.513
G0 F7200 X101.251 Y91.507
G0 X110.814 Y91.738
G0 X110.817 Y90.55
G1 F1800 X109.812 Y90.148 E134.75979
G1 X109.16 Y89.577 E134.95739
G1 X108.74 Y88.825 E135.15378
G1 X108.593 Y87.97 E135.35158
G1 X108.75 Y87.105 E135.55202
G1 X109.237 Y86.233 E135.77974
G1 X109.565 Y85.993 E135.87241
G1 X109.123 Y85.566 E136.01253
G1 X108.74 Y84.877 E136.19226
G1 X108.596 Y84.018 E136.39084
G1 X108.747 Y83.173 E136.58656
G1 X109.172 Y82.423 E136.7831
G1 F1803.3 X109.817 Y81.86 E136.97798
G1 F1806.6 X110.787 Y81.475 E137.21513
G1 F1809.9 X109.824 Y81.272 E137.4384
G1 F1803.3 X108.799 Y80.641 E137.71237
G1 F1800 X108.045 Y79.707 E137.98606
G1 X107.662 Y78.624 E138.24797
G1 X107.615 Y77.862 E138.42203
G1 F1790.1 X107.788 Y76.82 E138.66407
G1 F1748.6 X107.905 Y76.57 E138.72868
G1 F1736.1 X107.733 Y76.72 E138.78245
G1 F1764.4 X107.046 Y77.218 E138.97945
G1 F1790.1 X106.283 Y77.454 E139.16246
G1 F1800 X105.625 Y77.45 E139.31249
G1 X105.706 Y78.417 E139.53373
G1 X105.165 Y79.609 E139.83219
G1 X104.111 Y80.383 E140.13034
G1 X102.826 Y80.549 E140.42575
G1 X101.811 Y80.147 E140.67466
G1 X101.163 Y79.579 E140.87113
G1 X100.74 Y78.825 E141.06825
G1 X100.594 Y77.972 E141.26556
G1 X100.74 Y77.126 E141.4613
G1 X101.272 Y76.172 E141.71035
G1 X102.387 Y75.492 E142.00811
G1 X103.43 Y75.444 E142.24617
G1 X103.368 Y74.804 E142.39277
G1 X103.49 Y74.092 E142.55747
G1 X104.024 Y73.145 E142.80535
G1 X105.124 Y72.463 E143.10044
G1 X106.442 Y72.401 E143.40128
G1 X107.386 Y72.877 E143.64233
G1 X108.009 Y73.521 E143.84662
G1 F1777.2 X108.45 Y74.489 E144.09198
G1 F1682.1 X108.378 Y75.712 E144.389
G1 F1650.5 X108.598 Y75.53 E144.45941
G1 F1711.7 X109.286 Y74.952 E144.67385
G1 F1754.9 X110.376 Y74.51 E144.94828
G1 F1780.4 X111.587 Y74.452 E145.22747
G1 F1793.4 X112.744 Y74.806 E145.50426
G1 F1800 X113.585 Y75.424 E145.74221
G1 F1748.6 X113.987 Y75.886 E145.88556
G1 F1723.8 X113.846 Y74.932 E146.11423
G1 F1773.9 X113.99 Y74.091 E146.31136
G1 F1800 X114.515 Y73.153 E146.55645
G1 X115.628 Y72.46 E146.85538
G1 X116.94 Y72.405 E147.15478
G1 X117.897 Y72.887 E147.39909
G1 X118.517 Y73.532 E147.60307
G1 X118.955 Y74.514 E147.84823
G1 X118.874 Y75.47 E148.06698
G1 X119.705 Y75.438 E148.25659
G1 X120.645 Y75.912 E148.49661
G1 X121.267 Y76.564 E148.70206
G1 X121.615 Y77.336 E148.89514
G1 X121.701 Y78.423 E149.14375
G1 X121.166 Y79.604 E149.43936
G1 X120.131 Y80.375 E149.73361
G1 X118.818 Y80.551 E150.03566
G1 X117.817 Y80.15 E150.28152
G1 X117.175 Y79.591 E150.4756
G1 X116.74 Y78.831 E150.67526
G1 X116.618 Y78.11 E150.84198
G1 X116.68 Y77.473 E150.98791
G1 X115.624 Y77.425 E151.22892
G1 F1790.1 X114.716 Y76.866 E151.47325
G1 F1742.3 X114.396 Y76.555 E151.57804
G1 F1748.6 X114.596 Y77.25 E151.74733
G1 F1800 X114.684 Y78.27 E151.98075
G1 X114.389 Y79.411 E152.24946
G1 X113.709 Y80.429 E152.52858
G1 X112.755 Y81.132 E152.79877
G1 X112.076 Y81.379 E152.96351
G1 F1816.6 X111.076 Y81.503 E153.19134
G1 F1823.4 X111.892 Y81.598 E153.37646
G1 F1809.9 X112.65 Y81.983 E153.56933
G1 F1800 X113.248 Y82.594 E153.76425
G1 X113.705 Y83.593 E154.01473
G1 X113.615 Y84.671 E154.26137
G1 X113.182 Y85.623 E154.49982
G1 X112.725 Y85.995 E154.63417
G1 X113.263 Y86.56 E154.81205
G1 X113.611 Y87.33 E155.00471
